X:935
T:Canny Cumberland
A:North-West
M:6/8
O:England
R:Jig
Z:Richard Robinson 
%%TUNEURL: http://www.leeds.ac.uk/music/Info/RRTuneBk/gettune/000004c9.html
%%ID:000004c9
K:D
D|\
DEF GFG| AEF GAG| GFD AGF| EFE E2A|\
BcB AFA| BGB AFA| dcB ABA| AFD D2::\
A|\
ABc d2d| =cAB AFA| ABc d2d| =cAB A2F|\
ABc d2d| =cAB AFA| dcB ABA| AFD D2:|
